public/illustrations/_love.svg

<svg width="311" height="240" viewBox="0 0 311 240" fill="none" xmlns="http://www.w3.org/2000/svg">
<path d="M187.894 170.267C185.487 169.701 183.221 169.276 181.098 168.426C178.691 167.577 176.284 166.586 174.018 165.453C170.054 163.329 168.072 159.506 167.222 155.259C167.08 153.985 167.222 152.71 167.505 151.436C167.93 150.162 168.496 149.029 169.487 148.18C171.186 146.056 173.31 144.074 175.292 141.808C174.443 141.525 173.593 141.1 172.744 140.817C168.355 139.684 164.39 137.277 161.275 134.021C159.576 132.322 158.302 130.057 157.736 127.791C156.886 125.526 156.886 123.119 157.736 120.853C158.444 118.588 160.001 116.606 161.983 115.332C163.541 114.199 165.098 113.208 166.656 112.075C163.824 111.084 160.992 110.234 158.302 109.243C156.745 108.535 155.329 107.686 154.054 106.695C145.984 100.89 147.4 88.7134 153.488 83.7579C157.877 80.643 162.833 78.236 168.071 76.9617C175.292 74.9795 182.513 73.5637 190.017 72.8557C191.575 72.7142 193.274 72.2894 195.256 71.8646C194.831 70.7319 194.407 69.5993 193.84 68.4666C191.575 64.3606 190.017 59.9714 189.168 55.4407C187.894 49.2109 188.46 43.2643 192.283 37.7424C196.106 32.2205 205.45 28.9641 212.53 32.5037C218.052 35.477 223.432 38.8751 228.387 42.6979C235.042 47.9366 242.971 51.4763 251.324 53.0337C252.457 53.3169 253.59 53.4585 254.723 53.4585H276.244C279.642 53.1753 283.04 52.7505 286.438 52.1842C287.571 52.0426 288.562 52.1842 289.553 52.7505C290.544 53.3169 291.252 54.0248 291.818 55.0159C292.243 56.1486 292.526 57.1397 292.809 58.2724C295.641 72.1478 298.331 85.8817 301.021 99.6155C304.136 115.332 307.251 131.048 310.366 146.764C311.215 150.87 310.366 152.852 306.543 154.551C302.72 156.25 298.331 157.666 294.225 159.082C291.11 160.214 287.854 161.064 284.739 162.338C274.12 166.586 263.501 170.692 253.023 175.222C246.227 178.196 239.714 181.877 232.918 184.992C224.706 188.956 216.069 191.788 207.149 193.487C202.902 194.478 198.371 194.337 194.123 193.062C188.743 191.363 185.062 187.824 184.354 181.877C184.071 179.045 184.637 176.214 185.911 173.665C186.478 172.391 187.186 171.4 187.894 170.125V170.267ZM300.738 147.047C295.216 118.73 289.695 90.8372 284.031 62.6615H279.925C273.412 62.9447 266.899 63.3695 260.244 63.3695C255.289 63.3695 250.192 62.8031 245.378 61.6704C236.599 59.2635 228.246 55.1575 221.025 49.6356C216.919 46.6623 212.813 43.9722 208.424 41.4236C205.45 39.7246 202.76 40.2909 200.353 42.6979C199.504 43.5474 198.796 44.3969 198.371 45.5296C197.946 46.5207 197.663 47.795 197.522 48.9277C197.38 53.4585 198.796 57.5645 200.495 61.5289C201.486 63.9358 202.76 66.0596 203.751 68.4666C204.176 69.4577 204.459 70.5904 204.601 71.8646C204.742 73.1389 204.601 74.13 204.035 75.2627C203.468 76.3954 203.043 77.3865 202.194 78.236C201.344 79.0855 200.495 79.7935 199.362 80.2182C198.088 80.7846 196.814 81.3509 195.398 81.4925C192.141 82.0588 188.885 82.6252 185.487 83.0499C178.691 83.7579 172.036 85.3153 165.665 87.7223C164.107 88.2886 162.55 88.9966 161.134 89.8461C160.001 90.2708 159.01 91.1203 158.302 92.1115C157.594 93.1026 157.311 94.3768 157.311 95.6511C157.311 98.4828 159.293 99.7571 161.417 100.748C162.974 101.598 164.673 102.164 166.514 102.447C175.576 104.429 184.92 104.713 193.982 103.438C194.973 103.297 195.964 103.297 197.097 103.438C198.088 103.438 199.079 103.863 199.928 104.429C200.778 105.137 201.344 105.987 201.486 106.978C201.627 107.969 201.486 109.102 201.061 109.951C200.636 110.942 199.929 111.65 198.937 112.075C197.946 112.5 196.814 112.925 195.681 113.208C193.132 113.774 190.442 114.34 187.752 114.907C181.664 116.323 175.576 117.88 170.054 121.137C168.496 121.986 166.797 122.694 165.948 124.676C166.372 126.517 167.505 128.216 169.063 129.207C171.328 130.906 174.018 132.039 176.85 132.463C184.354 133.879 192 132.888 199.504 132.18C202.902 131.897 206.3 130.906 209.698 130.34C212.813 129.773 215.22 131.189 215.928 133.596C216.636 136.286 215.22 138.552 211.963 139.543C210.123 140.109 208.282 140.534 206.441 140.959C198.371 142.658 190.584 145.206 183.08 148.604C180.814 149.595 178.832 151.153 177.275 152.993C176.991 153.277 176.85 153.56 176.708 153.843C176.567 154.126 176.567 154.551 176.567 154.834C176.567 155.259 176.567 155.542 176.85 155.825C176.992 156.108 177.275 156.392 177.558 156.675C178.124 157.383 178.832 157.807 179.682 158.232C182.655 159.79 185.911 160.639 189.309 160.922C196.53 161.347 203.61 160.356 210.547 158.374C215.503 156.958 220.317 155.259 225.272 153.843C226.83 153.277 228.529 153.135 230.228 153.277C230.936 153.277 231.644 153.701 232.21 154.126C232.777 154.551 233.201 155.117 233.485 155.825C233.768 156.533 233.909 157.241 233.909 157.949C233.909 158.657 233.626 159.365 233.201 159.931C232.777 160.639 232.069 161.347 231.361 161.913C230.653 162.48 229.803 162.763 228.954 163.046C223.573 164.745 218.193 166.444 212.813 168.002C207.433 169.559 202.477 171.116 198.088 174.373C196.672 175.364 195.539 176.497 194.407 177.771C193.982 178.337 193.699 178.904 193.557 179.612V181.594C193.699 182.302 194.123 182.868 194.69 183.293C195.115 183.718 195.822 184.142 196.389 184.284C199.221 185.275 202.194 185.417 205.167 184.567C211.255 182.868 217.202 181.027 223.149 179.045C225.697 178.196 228.246 177.063 230.511 175.789C244.103 168.71 258.262 162.48 272.704 157.099C279.925 154.126 287.287 151.436 294.791 149.312C296.632 148.887 298.331 148.038 300.597 147.33L300.738 147.047Z" fill="#102185"/>
<path d="M93.4553 109.81C97.2781 109.385 100.534 109.102 103.791 108.678C110.729 107.686 117.667 108.111 124.463 109.952C129.277 111.226 133.383 114.058 136.498 117.881C138.338 120.146 139.329 122.978 139.471 125.809C139.471 128.783 138.763 131.614 137.064 134.021C134.798 137.136 131.967 139.826 128.569 141.809L125.029 143.932C128.71 145.49 132.392 147.047 135.931 148.746C138.763 150.021 141.17 152.003 142.869 154.693C146.125 159.932 145.984 164.604 142.869 169.135C138.905 174.94 133.1 178.055 126.587 180.037C125.879 180.32 125.171 180.462 124.321 180.603C123.755 180.603 123.33 180.886 122.622 181.17C124.887 182.727 127.153 184.001 129.135 185.559C131.259 187.116 133.241 189.098 134.798 191.222C137.772 196.036 137.347 200.567 133.524 205.098C131.684 207.363 129.56 209.062 127.011 210.336C124.463 211.611 121.631 212.319 118.799 212.46C117.383 212.46 115.968 212.46 114.552 212.743C111.295 213.31 110.587 214.867 111.72 217.982C112.428 219.539 112.994 221.097 113.419 222.654C114.127 225.203 113.985 227.751 113.136 230.158C112.145 232.565 110.587 234.548 108.322 235.963C106.481 237.096 104.499 238.087 102.375 238.512C93.8799 240.211 85.3848 240.353 77.1728 237.096C65.9875 232.565 54.6605 228.459 43.3336 224.07C31.8651 219.681 20.1134 216 8.07853 213.026C7.08743 212.743 6.09635 212.602 5.10525 212.319C1.56559 211.327 -0.133418 209.345 0.0081686 205.664C0.0081686 202.974 0.432894 200.284 0.857653 197.594C2.83986 183.86 4.96373 170.267 6.94594 156.534C8.64498 145.348 10.4855 134.305 12.1846 123.119C12.4677 120.854 12.7509 118.589 13.1756 116.323C13.742 112.784 15.2994 111.226 18.6975 111.226C30.166 111.085 39.794 106.129 48.1476 98.7665C53.5279 94.0942 58.3417 88.9971 63.2973 84.0416C68.9607 78.3781 75.049 73.5642 82.9778 71.8652C85.9511 71.2988 89.066 71.1572 92.181 71.4404C97.4197 72.1484 101.526 76.6791 102.517 82.0594C103.366 87.5812 102.517 93.1031 99.8267 98.0586C98.5524 100.89 96.7117 103.439 95.1542 105.987L93.172 109.669L93.4553 109.81ZM22.662 120.854C22.5204 121.137 22.2372 121.279 22.2372 121.562C21.3877 127.225 20.5382 132.889 19.6887 138.694C18.6976 144.782 17.8481 150.87 16.9986 156.958C16.149 163.047 15.2995 168.993 14.3084 174.798C13.3173 181.028 12.3262 187.258 11.4766 193.488C11.0519 197.027 9.77767 200.425 10.4856 204.107C11.052 204.39 11.6183 204.531 12.043 204.673C18.4144 206.372 25.0689 207.788 31.2988 210.053C42.0593 213.734 52.6783 217.982 63.2973 222.088C72.2172 225.628 81.2788 228.884 90.9066 230.158C94.1631 230.725 97.5612 230.583 100.818 229.592C104.641 228.459 105.49 226.477 103.791 222.937C101.526 217.84 97.2781 213.876 92.181 211.611C88.4997 210.053 84.8184 208.779 81.1371 207.221C79.7213 206.655 78.3054 206.089 76.8895 205.381C75.7569 204.814 74.9074 203.682 74.4826 202.549C74.0579 201.275 74.0579 200.001 74.4826 198.726C75.3322 196.744 78.0223 195.753 80.854 196.602C82.1283 197.027 83.4027 197.594 84.8185 198.16C95.4375 202.124 106.764 203.965 117.95 203.399C120.781 203.257 123.472 201.983 125.595 200.142C126.02 199.859 126.303 199.576 126.587 199.151C126.87 198.726 127.011 198.301 127.011 197.735C127.011 197.31 127.011 196.744 126.728 196.319C126.587 195.895 126.162 195.47 125.879 195.187C125.171 194.479 124.321 193.771 123.472 193.204C119.932 190.514 116.109 188.532 111.862 187.258C104.782 185.276 97.7028 183.435 90.7651 181.594C89.774 181.311 88.7829 181.028 87.7918 180.745C86.8007 180.32 86.0928 179.754 85.5265 178.763C84.9601 177.913 84.6768 176.922 84.6768 175.789C84.6768 174.657 85.3847 173.666 86.0927 172.958C86.9422 172.25 87.9334 171.825 89.0661 171.683C91.0483 171.683 92.8889 171.683 94.8711 171.825C103.791 172.816 112.853 172.674 121.773 171.542C126.02 170.975 129.985 169.135 133.099 166.303C136.498 163.33 136.214 160.215 132.392 157.949C129.56 156.25 126.445 154.835 123.188 153.985C117.242 152.569 111.154 151.72 105.065 150.87C102.092 150.445 98.9771 150.445 95.8622 150.162C92.7473 149.879 90.7651 147.614 91.3315 144.64C91.3315 143.649 91.8978 142.658 92.7473 141.95C93.4553 141.242 94.4464 140.818 95.5791 140.676C99.5435 140.251 103.508 139.826 107.472 139.26C112.994 138.694 118.233 136.995 123.047 134.163C125.312 132.747 127.294 130.907 128.993 128.783C130.692 126.801 130.268 125.243 128.569 123.261C126.586 121.279 124.179 119.721 121.348 119.013C113.985 116.89 106.623 117.881 99.1187 118.73C95.1543 119.297 91.1898 119.58 87.2254 119.721C81.562 119.721 78.8719 115.191 81.4204 110.235C82.2699 108.678 83.4026 107.262 84.3937 105.704C86.6591 102.165 89.0661 98.6249 91.1899 94.9437C92.889 92.112 93.7384 88.9971 93.7384 85.7406C93.7384 82.0594 92.0393 80.2188 88.2165 80.6435C85.8095 80.9267 83.4027 81.493 81.2789 82.4841C76.8897 84.3247 73.6331 87.5812 70.3766 90.8377C65.1379 96.0764 59.8992 101.457 54.2357 106.271C45.4573 113.775 35.5463 119.297 23.653 120.429C23.3699 120.429 23.0867 120.571 22.8036 120.712L22.662 120.854Z" fill="#102185"/>
<path d="M120.924 14.6644C122.764 10.5584 125.454 7.01876 128.852 4.04545C131.259 1.92166 134.233 0.505803 137.489 0.0810444C146.268 -0.768472 151.506 5.17814 153.205 12.399C154.621 18.0625 153.913 23.5843 152.922 29.2478C150.798 40.8578 146.409 51.9015 142.02 62.8037C139.896 67.9008 137.914 72.9979 136.073 78.2365C134.799 81.9178 131.684 83.1921 128.711 84.4663C126.729 85.3158 124.746 84.0416 123.331 82.4841C120.074 78.8029 116.676 75.4048 113.42 71.7236C104.075 61.5294 96.7123 49.4946 92.04 36.3271C90.1993 30.9468 88.7835 25.5665 89.2082 19.7615C89.4914 16.6466 90.4825 13.6733 92.1815 11.1248C93.8806 8.5762 96.146 6.45241 98.9777 4.89497C103.792 1.92166 109.597 2.77118 114.269 7.01876C116.676 9.28413 118.8 11.9743 121.207 14.806L120.924 14.6644ZM127.72 73.1394C128.144 72.1483 128.428 71.582 128.569 71.0157C129.985 67.476 131.259 63.7948 132.675 60.2551C136.498 50.7689 140.321 41.2826 142.586 31.23C143.719 25.8497 144.993 20.4694 143.719 14.9476C143.719 13.8149 143.153 12.8238 142.586 11.9743C141.878 11.1248 141.029 10.4168 140.038 9.99207C137.631 9.14255 135.79 10.4168 134.091 11.9743C131.259 14.806 129.136 18.3456 128.145 22.1685C127.153 25.7081 126.587 29.3894 126.587 33.2122C126.587 34.3449 126.162 35.336 125.454 36.1855C124.746 37.035 123.755 37.6013 122.764 37.7429C121.773 37.8845 120.64 37.7429 119.791 37.1766C118.8 36.6102 118.092 35.7607 117.809 34.7696C117.525 34.0617 117.384 33.3538 117.242 32.5043C116.11 27.124 113.703 22.0269 110.446 17.6377C109.172 16.2219 107.756 14.806 106.34 13.6733C105.774 13.107 104.924 12.9654 104.075 12.9654C103.367 12.9654 102.517 13.3901 102.093 13.9565C100.818 14.9476 99.8272 16.0803 99.1193 17.4961C98.4114 18.912 97.9865 20.3279 97.9865 21.8853C97.9865 24.717 98.4113 27.5487 99.4024 30.2389C104.5 47.2292 114.411 60.963 127.437 73.4226L127.72 73.1394Z" fill="#102185"/>
</svg>

<svg xmlns="http://www.w3.org/2000/svg" width="311" height="240" fill="none" viewBox="0 0 311 240"><path fill="#102185" d="M187.894 170.267c-2.407-.566-4.673-.991-6.796-1.841-2.407-.849-4.814-1.84-7.08-2.973-3.964-2.124-5.946-5.947-6.796-10.194-.142-1.274 0-2.549.283-3.823.425-1.274.991-2.407 1.982-3.256 1.699-2.124 3.823-4.106 5.805-6.372-.849-.283-1.699-.708-2.548-.991-4.389-1.133-8.354-3.54-11.469-6.796-1.699-1.699-2.973-3.964-3.539-6.23a9.76 9.76 0 0 1 0-6.938c.708-2.265 2.265-4.247 4.247-5.521 1.558-1.133 3.115-2.124 4.673-3.257-2.832-.991-5.664-1.841-8.354-2.832a21.2 21.2 0 0 1-4.248-2.548c-8.07-5.805-6.654-17.982-.566-22.937 4.389-3.115 9.345-5.522 14.583-6.796 7.221-1.983 14.442-3.398 21.946-4.106 1.558-.142 3.257-.567 5.239-.991-.425-1.133-.849-2.266-1.416-3.398a43.5 43.5 0 0 1-4.672-13.026c-1.274-6.23-.708-12.177 3.115-17.699 3.823-5.521 13.167-8.778 20.247-5.238 5.522 2.973 10.902 6.371 15.857 10.194 6.655 5.239 14.584 8.778 22.937 10.336a14 14 0 0 0 3.399.425h21.521q5.097-.426 10.194-1.275c1.133-.141 2.124 0 3.115.567a5.8 5.8 0 0 1 2.265 2.265c.425 1.133.708 2.124.991 3.256 2.832 13.876 5.522 27.61 8.212 41.344l9.345 47.148c.849 4.106 0 6.088-3.823 7.787s-8.212 3.115-12.318 4.531c-3.115 1.132-6.371 1.982-9.486 3.256-10.619 4.248-21.238 8.354-31.716 12.884-6.796 2.974-13.309 6.655-20.105 9.77a103.9 103.9 0 0 1-25.769 8.495c-4.247.991-8.778.85-13.026-.425-5.38-1.699-9.061-5.238-9.769-11.185-.283-2.832.283-5.663 1.557-8.212.567-1.274 1.275-2.265 1.983-3.54zm112.844-23.22a14794 14794 0 0 0-16.707-84.386h-4.106c-6.513.284-13.026.709-19.681.709-4.955 0-10.052-.567-14.866-1.7-8.779-2.407-17.132-6.513-24.353-12.034a148 148 0 0 0-12.601-8.212c-2.974-1.7-5.664-1.133-8.071 1.274-.849.85-1.557 1.699-1.982 2.832-.425.99-.708 2.265-.849 3.398-.142 4.53 1.274 8.637 2.973 12.6.991 2.408 2.265 4.532 3.256 6.939q.637 1.485.85 3.398c.141 1.274 0 2.265-.566 3.398-.567 1.132-.992 2.123-1.841 2.973-.85.85-1.699 1.557-2.832 1.982-1.274.567-2.548 1.133-3.964 1.275-3.257.566-6.513 1.132-9.911 1.557a79.3 79.3 0 0 0-19.822 4.672c-1.558.567-3.115 1.275-4.531 2.124-1.133.425-2.124 1.274-2.832 2.266-.708.99-.991 2.265-.991 3.54 0 2.83 1.982 4.105 4.106 5.096q2.335 1.275 5.097 1.699c9.062 1.982 18.406 2.266 27.468.991.991-.141 1.982-.141 3.115 0 .991 0 1.982.425 2.831.991.85.708 1.416 1.558 1.558 2.549.141.991 0 2.124-.425 2.973a3.9 3.9 0 0 1-2.124 2.124c-.991.425-2.123.85-3.256 1.133-2.549.566-5.239 1.132-7.929 1.699-6.088 1.416-12.176 2.973-17.698 6.23-1.558.849-3.257 1.557-4.106 3.539.424 1.841 1.557 3.54 3.115 4.531a17.3 17.3 0 0 0 7.787 3.256c7.504 1.416 15.15.425 22.654-.283 3.398-.283 6.796-1.274 10.194-1.84 3.115-.567 5.522.849 6.23 3.256.708 2.69-.708 4.956-3.965 5.947-1.84.566-3.681.991-5.522 1.416a112.8 112.8 0 0 0-23.361 7.645c-2.266.991-4.248 2.549-5.805 4.389-.284.284-.425.567-.567.85s-.141.708-.141.991c0 .425 0 .708.283.991.142.283.425.567.708.85.566.708 1.274 1.132 2.124 1.557 2.973 1.558 6.229 2.407 9.627 2.69 7.221.425 14.301-.566 21.238-2.548 4.956-1.416 9.77-3.115 14.725-4.531 1.558-.566 3.257-.708 4.956-.566.708 0 1.416.424 1.982.849q.85.637 1.275 1.699t.424 2.124c0 .708-.283 1.416-.708 1.982-.424.708-1.132 1.416-1.84 1.982s-1.558.85-2.407 1.133c-5.381 1.699-10.761 3.398-16.141 4.956-5.38 1.557-10.336 3.114-14.725 6.371-1.416.991-2.549 2.124-3.681 3.398-.425.566-.708 1.133-.85 1.841v1.982c.142.708.566 1.274 1.133 1.699.425.425 1.132.849 1.699.991 2.832.991 5.805 1.133 8.778.283a378 378 0 0 0 17.982-5.522 43 43 0 0 0 7.362-3.256c13.592-7.079 27.751-13.309 42.193-18.69 7.221-2.973 14.583-5.663 22.087-7.787 1.841-.425 3.54-1.274 5.806-1.982zM93.455 109.81c3.823-.425 7.079-.708 10.336-1.132a50.9 50.9 0 0 1 20.672 1.274c4.814 1.274 8.92 4.106 12.035 7.929 1.84 2.265 2.831 5.097 2.973 7.928 0 2.974-.708 5.805-2.407 8.212-2.266 3.115-5.097 5.805-8.495 7.788l-3.54 2.123c3.681 1.558 7.363 3.115 10.902 4.814 2.832 1.275 5.239 3.257 6.938 5.947 3.256 5.239 3.115 9.911 0 14.442-3.964 5.805-9.769 8.92-16.282 10.902-.708.283-1.416.425-2.266.566-.566 0-.991.283-1.699.567 2.265 1.557 4.531 2.831 6.513 4.389a26.8 26.8 0 0 1 5.663 5.663c2.974 4.814 2.549 9.345-1.274 13.876-1.84 2.265-3.964 3.964-6.513 5.238s-5.38 1.983-8.212 2.124c-1.416 0-2.831 0-4.247.283-3.257.567-3.965 2.124-2.832 5.239a31 31 0 0 1 1.699 4.672c.708 2.549.566 5.097-.283 7.504-.991 2.407-2.549 4.39-4.814 5.805-1.841 1.133-3.823 2.124-5.947 2.549-8.495 1.699-16.99 1.841-25.202-1.416-11.186-4.531-22.513-8.637-33.84-13.026A300 300 0 0 0 8.08 213.026c-.992-.283-1.983-.424-2.974-.707-3.54-.992-5.238-2.974-5.097-6.655 0-2.69.425-5.38.85-8.07 1.982-13.734 4.106-27.327 6.088-41.06 1.699-11.186 3.54-22.229 5.239-33.415.283-2.265.566-4.53.99-6.796.567-3.539 2.124-5.097 5.523-5.097 11.468-.141 21.096-5.097 29.45-12.46 5.38-4.672 10.194-9.769 15.15-14.724 5.663-5.664 11.751-10.478 19.68-12.177a33.2 33.2 0 0 1 9.203-.425c5.239.708 9.345 5.24 10.336 10.62.849 5.521 0 11.043-2.69 15.999-1.275 2.831-3.115 5.38-4.673 7.928l-1.982 3.682zm-70.793 11.044c-.142.283-.425.425-.425.708-.85 5.663-1.699 11.327-2.548 17.132-.991 6.088-1.84 12.176-2.69 18.264-.85 6.089-1.7 12.035-2.69 17.84-.992 6.23-1.983 12.46-2.832 18.69-.425 3.539-1.7 6.937-.991 10.619.566.283 1.132.424 1.557.566 6.371 1.699 13.026 3.115 19.256 5.38 10.76 3.681 21.38 7.929 31.998 12.035 8.92 3.54 17.982 6.796 27.61 8.07 3.256.567 6.654.425 9.911-.566 3.823-1.133 4.672-3.115 2.973-6.655-2.265-5.097-6.513-9.061-11.61-11.326-3.681-1.558-7.363-2.832-11.044-4.39-1.416-.566-2.832-1.132-4.248-1.84-1.132-.567-1.982-1.699-2.406-2.832a5.9 5.9 0 0 1 0-3.823c.85-1.982 3.54-2.973 6.371-2.124 1.274.425 2.549.992 3.965 1.558 10.618 3.964 21.945 5.805 33.131 5.239 2.831-.142 5.522-1.416 7.645-3.257.425-.283.708-.566.992-.991.283-.425.424-.85.424-1.416 0-.425 0-.991-.283-1.416-.141-.424-.566-.849-.849-1.132a16.4 16.4 0 0 0-2.407-1.983c-3.54-2.69-7.363-4.672-11.61-5.946-7.08-1.982-14.16-3.823-21.097-5.664l-2.973-.849c-.991-.425-1.7-.991-2.266-1.982q-.85-1.275-.85-2.974c0-1.132.709-2.123 1.417-2.831a5.64 5.64 0 0 1 2.973-1.275c1.982 0 3.823 0 5.805.142 8.92.991 17.982.849 26.902-.283 4.247-.567 8.212-2.407 11.326-5.239 3.399-2.973 3.115-6.088-.707-8.354-2.832-1.699-5.947-3.114-9.204-3.964-5.946-1.416-12.034-2.265-18.123-3.115-2.973-.425-6.088-.425-9.203-.708s-5.097-2.548-4.53-5.522c0-.991.566-1.982 1.415-2.69.708-.708 1.7-1.132 2.832-1.274 3.965-.425 7.929-.85 11.893-1.416a38.16 38.16 0 0 0 15.575-5.097c2.265-1.416 4.247-3.256 5.946-5.38 1.699-1.982 1.275-3.54-.424-5.522-1.983-1.982-4.39-3.54-7.221-4.248-7.363-2.123-14.725-1.132-22.23-.283-3.964.567-7.928.85-11.893.991-5.663 0-8.353-4.53-5.805-9.486.85-1.557 1.983-2.973 2.974-4.531 2.265-3.539 4.672-7.08 6.796-10.76a17.7 17.7 0 0 0 2.548-9.203c0-3.682-1.699-5.522-5.522-5.097-2.406.283-4.813.849-6.937 1.84-4.39 1.84-7.646 5.097-10.902 8.354-5.24 5.238-10.478 10.619-16.141 15.433-8.779 7.504-18.69 13.026-30.583 14.158-.283 0-.566.142-.85.283zM120.924 14.664c1.84-4.106 4.53-7.645 7.928-10.619 2.407-2.123 5.381-3.54 8.637-3.964 8.779-.85 14.017 5.097 15.716 12.318 1.416 5.664.708 11.185-.283 16.849-2.124 11.61-6.513 22.653-10.902 33.556a290 290 0 0 0-5.947 15.433c-1.274 3.68-4.389 4.955-7.362 6.23-1.982.849-3.965-.425-5.38-1.983-3.257-3.681-6.655-7.08-9.911-10.76-9.345-10.195-16.708-22.23-21.38-35.397-1.84-5.38-3.257-10.76-2.832-16.565.283-3.115 1.275-6.089 2.974-8.637a19.2 19.2 0 0 1 6.796-6.23c4.814-2.973 10.619-2.124 15.291 2.124 2.407 2.265 4.531 4.955 6.938 7.787zm6.796 58.475c.424-.99.708-1.557.849-2.123 1.416-3.54 2.69-7.221 4.106-10.76 3.823-9.487 7.646-18.973 9.911-29.026 1.133-5.38 2.407-10.76 1.133-16.282 0-1.133-.566-2.124-1.133-2.974-.708-.85-1.557-1.557-2.548-1.982-2.407-.85-4.248.425-5.947 1.982-2.832 2.832-4.955 6.372-5.946 10.195-.992 3.54-1.558 7.22-1.558 11.043 0 1.133-.425 2.124-1.133 2.973-.708.85-1.699 1.416-2.69 1.558s-2.124 0-2.973-.566c-.991-.567-1.699-1.416-1.982-2.407-.284-.708-.425-1.416-.567-2.266-1.132-5.38-3.539-10.477-6.796-14.866-1.274-1.416-2.69-2.832-4.106-3.965-.566-.566-1.416-.708-2.265-.708-.708 0-1.558.425-1.982.992-1.275.99-2.266 2.123-2.974 3.54-.708 1.415-1.132 2.83-1.132 4.388 0 2.832.424 5.664 1.415 8.354 5.098 16.99 15.009 30.724 28.035 43.184z"/></svg>
